images/Bell.svg

<svg width="48" height="38" viewBox="0 0 48 38" fill="none" xmlns="http://www.w3.org/2000/svg">
<path d="M26.4516 32.8206H21.5486L21.2773 34.3935C20.986 36.0823 22.2864 37.6262 24 37.6262C25.7138 37.6262 27.0141 36.0823 26.7228 34.3935L26.4516 32.8206Z" fill="#FFDD27"/>
<path d="M26.7608 34.7522C26.7559 34.6337 26.7432 34.5141 26.7224 34.3937L26.4511 32.8207L22.6054 31.9338L21.548 32.8207L21.2767 34.3937C21.2559 34.5141 21.2433 34.6338 21.2383 34.7522H26.7608Z" fill="#F9C91A"/>
<path d="M36.0004 25.1452C35.6854 24.5995 35.5195 23.9807 35.5195 23.3506V17.0593C35.5195 11.9542 32.1985 7.6245 27.5991 6.11306C27.4592 6.06712 27.4001 5.92097 27.4621 5.78737C27.7325 5.20472 27.8599 4.54275 27.7991 3.84684C27.666 2.32181 26.3621 0.373779 24.0051 0.373779C21.8867 0.373779 20.1862 2.09315 20.1862 4.18772C20.1862 4.74853 20.3079 5.2815 20.5264 5.76159C20.5936 5.90934 20.5206 6.0734 20.3665 6.12459C15.7851 7.64625 12.4808 11.9668 12.4808 17.0592L12.4808 23.3507C12.4808 23.9807 12.315 24.5996 12 25.1452L24.2558 27.6003L36.0004 25.1452ZM22.6482 4.18762C22.6482 3.4409 23.2536 2.83565 24.0002 2.83565C24.7469 2.83565 25.3522 3.441 25.3522 4.18762C25.3522 4.93425 24.7468 5.53959 24.0002 5.53959C23.2535 5.53969 22.6482 4.93434 22.6482 4.18762Z" fill="#FFDD27"/>
<path d="M31.6559 14.6447V20.936C31.6559 21.566 31.8217 22.1849 32.1367 22.7305L33.5307 25.1451L35.3904 25.8926L35.9999 25.1451C35.6849 24.5994 35.519 23.9806 35.519 23.3505V17.0592C35.519 12.1215 32.4122 7.90922 28.0469 6.27075C30.2691 8.37075 31.6559 11.3458 31.6559 14.6447V14.6447Z" fill="#F9C91A"/>
<path d="M47.9998 18.0727C47.9998 21.8898 46.6207 25.3841 44.3341 28.085C43.8813 28.62 43.0641 28.6458 42.5685 28.1503L42.562 28.1437C42.1156 27.6974 42.0944 26.9866 42.5014 26.5043C44.4246 24.2254 45.5852 21.2826 45.5852 18.0727C45.5852 14.8636 44.4244 11.92 42.5018 9.64093C42.0949 9.15868 42.1163 8.44824 42.5623 8.00199L42.5693 7.99496C43.0649 7.49911 43.8824 7.5249 44.3353 8.06012C46.6216 10.7619 47.9998 14.2566 47.9998 18.0727Z" fill="#FFDD27"/>
<path d="M43.1712 18.0729C43.1712 20.5266 42.3391 22.7905 40.9417 24.596C40.4961 25.1718 39.6475 25.229 39.1326 24.7141L39.1312 24.7126C38.7007 24.2822 38.6616 23.6007 39.0337 23.1192C40.1134 21.7222 40.7567 19.9716 40.7567 18.073C40.7567 16.1743 40.1134 14.4237 39.0337 13.0268C38.6616 12.5452 38.7007 11.8636 39.1312 11.4332L39.1326 11.4317C39.6475 10.9168 40.4961 10.9739 40.9417 11.5498C42.3391 13.3553 43.1712 15.6192 43.1712 18.0729V18.0729Z" fill="#FFDD27"/>
<path d="M0 18.0727C0 21.8898 1.37906 25.3841 3.66562 28.085C4.11844 28.62 4.93566 28.6458 5.43122 28.1503L5.43778 28.1437C5.88412 27.6974 5.90541 26.9866 5.49834 26.5043C3.57516 24.2254 2.41453 21.2826 2.41453 18.0727C2.41453 14.8636 3.57534 11.92 5.49797 9.64093C5.90484 9.15868 5.88347 8.44824 5.4375 8.00199L5.43047 7.99496C4.93491 7.49911 4.11741 7.5249 3.6645 8.06012C1.37822 10.7619 0 14.2566 0 18.0727H0Z" fill="#FFDD27"/>
<path d="M4.82812 18.0729C4.82812 20.5266 5.66025 22.7905 7.05759 24.596C7.50328 25.1718 8.35181 25.229 8.86668 24.7141L8.86818 24.7126C9.29859 24.2822 9.33778 23.6007 8.96559 23.1192C7.88597 21.7222 7.24265 19.9716 7.24265 18.073C7.24265 16.1743 7.88597 14.4237 8.96559 13.0268C9.33778 12.5452 9.29859 11.8636 8.86818 11.4332L8.86668 11.4317C8.35181 10.9168 7.50328 10.9739 7.05759 11.5498C5.66025 13.3553 4.82812 15.6192 4.82812 18.0729V18.0729Z" fill="#FFDD27"/>
<path d="M24 8.72595C23.2998 8.72595 22.628 8.57051 22.0032 8.26405C21.6441 8.08789 21.4958 7.65383 21.6719 7.29467C21.8481 6.93542 22.2821 6.7872 22.6413 6.96336C23.0658 7.17158 23.5229 7.27723 24 7.27723C24.4729 7.27723 24.9264 7.17345 25.3478 6.96879C25.7075 6.79404 26.1411 6.94395 26.3157 7.30386C26.4906 7.66367 26.3406 8.09708 25.9807 8.27183C25.3604 8.57323 24.6941 8.72595 24 8.72595V8.72595Z" fill="#F9C91A"/>
<path d="M35.9995 25.1453H11.9992L7.92272 32.2059C7.76494 32.479 7.96219 32.8206 8.27765 32.8206H39.7211C40.0366 32.8206 40.2337 32.479 40.0761 32.2059L35.9995 25.1453Z" fill="#F6E266"/>
<path d="M40.0761 32.2057L35.9996 25.145H33.5304L34.0932 26.1197C35.193 28.0246 33.8182 30.4058 31.6186 30.4058H8.96184L7.92272 32.2056C7.76494 32.4788 7.96219 32.8203 8.27765 32.8203H39.7211C40.0367 32.8204 40.2338 32.479 40.0761 32.2057V32.2057Z" fill="#F4D820"/>
</svg>

<svg xmlns="http://www.w3.org/2000/svg" width="48" height="38" fill="none"><path fill="#FFDD27" d="M26.452 32.82h-4.903l-.272 1.574a2.763 2.763 0 1 0 5.446 0z"/><path fill="#F9C91A" d="M26.76 34.752a3 3 0 0 0-.038-.358l-.27-1.573-3.847-.887-1.057.887-.271 1.573q-.032.18-.039.358z"/><path fill="#FFDD27" d="M36 25.145a3.6 3.6 0 0 1-.48-1.794v-6.292c0-5.105-3.322-9.434-7.92-10.946a.23.23 0 0 1-.138-.326c.27-.582.398-1.244.337-1.94-.133-1.525-1.437-3.473-3.794-3.473a3.818 3.818 0 0 0-3.479 5.388.262.262 0 0 1-.16.363c-4.58 1.521-7.885 5.842-7.885 10.934v6.292c0 .63-.166 1.249-.481 1.794L24.256 27.6zM22.648 4.188a1.352 1.352 0 1 1 2.704 0 1.352 1.352 0 0 1-2.704 0"/><path fill="#F9C91A" d="M31.656 14.645v6.291c0 .63.166 1.249.48 1.794l1.395 2.415 1.86.748.609-.748a3.6 3.6 0 0 1-.481-1.794v-6.292c0-4.938-3.107-9.15-7.472-10.788a11.49 11.49 0 0 1 3.609 8.374"/><path fill="#FFDD27" d="M48 18.073c0 3.817-1.38 7.311-3.666 10.012-.453.535-1.27.56-1.766.065l-.006-.006a1.21 1.21 0 0 1-.06-1.64 13.03 13.03 0 0 0 3.083-8.431c0-3.21-1.16-6.153-3.083-8.432a1.21 1.21 0 0 1 .06-1.639l.007-.007a1.2 1.2 0 0 1 1.766.065A15.45 15.45 0 0 1 48 18.073"/><path fill="#FFDD27" d="M43.171 18.073c0 2.454-.832 4.718-2.23 6.523a1.207 1.207 0 0 1-1.808.118l-.002-.001a1.21 1.21 0 0 1-.097-1.594 8.23 8.23 0 0 0 1.723-5.046c0-1.899-.644-3.65-1.723-5.046a1.21 1.21 0 0 1 .097-1.594l.002-.001a1.207 1.207 0 0 1 1.809.118 10.62 10.62 0 0 1 2.23 6.523M0 18.073c0 3.817 1.38 7.311 3.666 10.012.452.535 1.27.56 1.765.065l.007-.006a1.21 1.21 0 0 0 .06-1.64 13.03 13.03 0 0 1-3.083-8.431c0-3.21 1.16-6.153 3.083-8.432a1.21 1.21 0 0 0-.06-1.639l-.008-.007a1.2 1.2 0 0 0-1.765.065A15.45 15.45 0 0 0 0 18.073"/><path fill="#FFDD27" d="M4.828 18.073c0 2.454.832 4.718 2.23 6.523a1.207 1.207 0 0 0 1.809.118l.001-.001c.43-.43.47-1.112.098-1.594a8.23 8.23 0 0 1-1.723-5.046c0-1.899.643-3.65 1.723-5.046a1.21 1.21 0 0 0-.098-1.594l-.001-.001a1.207 1.207 0 0 0-1.81.118 10.63 10.63 0 0 0-2.229 6.523"/><path fill="#F9C91A" d="M24 8.726c-.7 0-1.372-.155-1.997-.462a.725.725 0 0 1 .638-1.3A3.06 3.06 0 0 0 24 7.276a3.06 3.06 0 0 0 1.348-.308.724.724 0 1 1 .633 1.303A4.5 4.5 0 0 1 24 8.726"/><path fill="#F6E266" d="M36 25.145H12l-4.077 7.06a.41.41 0 0 0 .355.616H39.72a.41.41 0 0 0 .355-.615z"/><path fill="#F4D820" d="M40.076 32.206 36 25.145h-2.47l.563.975c1.1 1.905-.275 4.286-2.474 4.286H8.962l-1.04 1.8a.41.41 0 0 0 .356.614H39.72a.41.41 0 0 0 .355-.614"/></svg>
